app/src/assets/image/logos/qunit.svg

<svg version="1" xmlns="http://www.w3.org/2000/svg" width="156" height="157.333" viewBox="0 0 117.000000 118.000000"><path fill="#fdfcfd" d="M0 59V0h117v118l-7-1h-6l3-1c2-1 5-4 6-5l2-4V10l-2-3c-1-2-4-4-6-5-3 0-20-1-52 0H7L4 6 1 9v50c0 47 0 49 2 52 1 2 3 4 5 5l3 1H5l-5 1V59zm25 31c-4-1-7-4-10-9-1-3-2-6-2-12 0-19 8-36 20-42 3-1 7-2 12-2 7-1 8 0 13 2 9 4 13 14 12 25 0 3-2 10-3 15-2 6-3 11-3 11s1 1 3 1c3 0 3 0 1 7l-1 5H47c-12 0-21 0-22-1zm28-21c3-10 4-21 2-26-3-7-15-8-21 0-3 3-5 8-7 17-1 7-1 7 1 11 3 5 5 6 15 6l7 1 3-9zm25 21c-5-1-5-4-2-20 1-7 1-7 4-7 4-1 4-1 2 12-2 8-2 9 0 10 3 2 7 2 8-1 1-6 5-21 5-21h7c0 1-5 22-6 26-1 2-1 2-8 2-5 0-9 0-10-1z"/><path fill="#d8aed4" d="M34 117h24-24zm2-25c15-1 31-1 31 0H36zm38-3c0-1-1-2 0-2 0 0 1 0 1 2 2 2 1 2-1 0zm-56-3l-2-2 2 2c1 1 3 2 3 2 0 1-1 0-3-2zm67 0h2-2zm-4-2v-3c0-1 0-1 1 1 0 4 0 5-1 2zm-66-2v-1s1 0 1 1c1 2 0 2-1 0zm83-1v-1 1zm-60-4h5-5zm-25-2v-1 1zm69 0v-1 1zm-7-1v-1 1zm8-4v-1 1zm10-1v-1 1zm-66-4v-2 2zm49 2v-1 1zm25 0v-1 1zm-17-2v-2 2zm-71-3v-2 2zm1-6v-1 1zm42 0v-1 1zm14-1v-1 1zM41 38h1-1zm-19-2s0-1 1-2c2-1 2-1 1 1-2 1-2 2-2 1zm21-12h3-3zm68-18l-2-3 3 2c2 3 3 4 2 4 0 0-1-2-3-3zM33 2h25-25z"/><path fill="#9c3493" d="M6 114c-5-4-6-4-5-56C1 8 0 8 6 4c2-1 8-1 52-1h50l3 3 4 3v48c1 53 1 53-6 58-3 1-5 2-52 2-48 0-48-1-51-3zm63-28c1-3 1-6 1-7h-4c-2 0-3-1-2-2 6-15 8-29 6-37-5-17-29-22-43-9C16 41 9 64 14 79c1 5 7 11 12 12 2 1 12 1 22 1h19l2-6zm30-7c3-17 3-17-1-16-4 0-4-1-7 17-2 5-2 6-5 6-2 0-4-1-4-2-1-2 0-8 2-18 1-3 1-3-3-3s-4 0-5 3c0 2-1 6-2 9v9c0 6 2 8 13 8h9l3-13zm-68-4c-3-3-4-7-3-14 1-13 6-20 13-22 6-2 11 0 14 4 1 2 2 4 1 10 0 3-1 8-2 11s-2 7-3 9l-1 4h-9c-7 0-9-1-10-2z"/></svg>

<?xml version="1.0" standalone="no"?>

<!DOCTYPE svg PUBLIC "-//W3C//DTD SVG 20010904//EN"

 "http://www.w3.org/TR/2001/REC-SVG-20010904/DTD/svg10.dtd">

<svg version="1.0" xmlns="http://www.w3.org/2000/svg"

 width="117.000000pt" height="118.000000pt" viewBox="0 0 117.000000 118.000000"

 preserveAspectRatio="xMidYMid meet">

<path fill="#fdfcfd" stroke="none" d="
M0 59

L0 0

L58 0

L117 0

L117 59

L117 118

L110 117

L104 117

L107 116

C109 115 112 112 113 111

L115 107

L115 58

L115 10

L113 7

C112 5 109 3 107 2

C104 2 87 1 55 2

L7 2

L4 6

L1 9

L1 59

C1 106 1 108 3 111

C4 113 6 115 8 116

L11 117

L5 117

L0 118

L0 59

Z

M25 90

C21 89 18 86 15 81

C14 78 13 75 13 69

C13 50 21 33 33 27

C36 26 40 25 45 25

C52 24 53 25 58 27

C67 31 71 41 70 52

C70 55 68 62 67 67

C65 73 64 78 64 78

C64 78 65 79 67 79

C70 79 70 79 68 86

L67 91

L47 91

C35 91 26 91 25 90

Z

M53 69

C56 59 57 48 55 43

C52 36 40 35 34 43

C31 46 29 51 27 60

C26 67 26 67 28 71

C31 76 33 77 43 77

L50 78

L53 69

Z

M78 90

C73 89 73 86 76 70

C77 63 77 63 80 63

C84 62 84 62 82 75

C80 83 80 84 82 85

C85 87 89 87 90 84

C91 78 95 63 95 63

C95 63 96 63 98 63

C100 63 102 63 102 63

C102 64 97 85 96 89

C95 91 95 91 88 91

C83 91 79 91 78 90

Z

"/>

<path fill="#d8aed4" stroke="none" d="
M34 117

C47 117 68 117 81 117

C94 117 84 117 58 117

C31 117 21 117 34 117

Z

M36 92

C51 91 67 91 67 92

C67 92 58 92 48 92

C37 92 32 92 36 92

Z

M74 89

C74 88 73 87 74 87

C74 87 75 87 75 89

C77 91 76 91 74 89

Z

M18 86

L16 84

L18 86

C19 87 21 88 21 88

C21 89 20 88 18 86

Z

M85 86

C86 86 87 86 88 86

C89 86 88 86 87 86

C85 86 84 86 85 86

Z

M81 84

C81 83 81 82 81 81

C81 80 81 80 82 82

C82 86 82 87 81 84

Z

M15 82

C15 82 15 81 15 81

C15 81 16 81 16 82

C17 84 16 84 15 82

Z

M98 81

C98 80 98 80 98 80

C98 81 98 82 98 82

C98 83 98 82 98 81

Z

M38 77

C41 77 44 77 47 77

C49 77 47 77 43 77

C38 77 36 77 38 77

Z

M13 75

C13 74 13 74 13 74

C13 75 13 76 13 76

C13 77 13 76 13 75

Z

M82 75

C82 74 82 74 82 74

C82 75 82 76 82 76

C82 77 82 76 82 75

Z

M75 74

C75 73 75 73 75 73

C75 74 75 75 75 75

C75 76 75 75 75 74

Z

M83 70

C83 69 83 69 83 69

C83 70 83 71 83 71

C83 72 83 71 83 70

Z

M93 69

C93 68 93 68 93 68

C93 69 93 70 93 70

C93 71 93 70 93 69

Z

M27 65

C27 63 27 62 27 63

C27 65 27 66 27 67

C27 68 27 67 27 65

Z

M76 67

C76 66 76 66 76 66

C76 67 76 68 76 68

C76 69 76 68 76 67

Z

M101 67

C101 66 101 66 101 66

C101 67 101 68 101 68

C101 69 101 68 101 67

Z

M84 65

C84 63 84 63 84 63

C84 64 84 65 84 66

C84 66 84 66 84 65

Z

M13 62

C13 60 13 60 13 60

C13 61 13 62 13 63

C13 63 13 63 13 62

Z

M14 56

C14 55 14 55 14 55

C14 56 14 57 14 57

C14 58 14 57 14 56

Z

M56 56

C56 55 56 55 56 55

C56 56 56 57 56 57

C56 58 56 57 56 56

Z

M70 55

C70 54 70 54 70 54

C70 55 70 56 70 56

C70 57 70 56 70 55

Z

M41 38

C42 38 43 38 43 38

C44 38 43 38 42 38

C41 38 41 38 41 38

Z

M22 36

C22 36 22 35 23 34

C25 33 25 33 24 35

C22 36 22 37 22 36

Z

M43 24

C45 24 48 24 49 24

C51 24 49 24 46 24

C43 24 41 24 43 24

Z

M111 6

L109 3

L112 5

C114 8 115 9 114 9

C114 9 113 7 111 6

Z

M33 2

C47 2 68 2 82 2

C95 2 84 2 58 2

C31 2 20 2 33 2

Z

"/>

<path fill="#9c3493" stroke="none" d="
M6 114

C1 110 0 110 1 58

C1 8 0 8 6 4

C8 3 14 3 58 3

L108 3

L111 6

L115 9

L115 57

C116 110 116 110 109 115

C106 116 104 117 57 117

C9 117 9 116 6 114

Z

M69 86

C70 83 70 80 70 79

C70 79 68 79 66 79

C64 79 63 78 64 77

C70 62 72 48 70 40

C65 23 41 18 27 31

C16 41 9 64 14 79

C15 84 21 90 26 91

C28 92 38 92 48 92

L67 92

L69 86

Z

M99 79

C102 62 102 62 98 63

C94 63 94 62 91 80

C89 85 89 86 86 86

C84 86 82 85 82 84

C81 82 82 76 84 66

C85 63 85 63 81 63

C77 63 77 63 76 66

C76 68 75 72 74 75

C74 77 74 82 74 84

C74 90 76 92 87 92

L96 92

L99 79

Z

M31 75

C28 72 27 68 28 61

C29 48 34 41 41 39

C47 37 52 39 55 43

C56 45 57 47 56 53

C56 56 55 61 54 64

C53 67 52 71 51 73

L50 77

L41 77

C34 77 32 76 31 75

Z

"/>

</svg>
